X: 14200
T: Frunobulax
R: reel
M: 4/4
K: Ddorian
F4E2GE|Ddde fedc|AdcA GFEG|AFGE DCA,C|~F3F EGGE|
Ddde fedc|~A2cA GFEG|1 ADDC D4:|2 ADDC D2 (3ABc||
~d3d {e}dcAG|FGAB cBce|~d3d {e}dcAG|FDCA, C2A,C|
~D3E FEFA|dfed cAGc|AdcA GFEG|1 ADDC D2 (3ABc:|2 ADDC D4||

